X:119
T:Paddy Taylor's No. 1
Z: id:dc-jig-99
M:6/8
L:1/8
K:D Major
A|FAF EFE|DFA d2A|ded cAG|FAF GED|!
FAF EFE|DFA def|edc ABc|dfe d2:|!
e|f2a g2e|fdB AB=c|B3 EFG|A2D FED|!
f2a g2e|fdB AFA|Bcd ecA|dfe d2:|!

